src/basic/600/u25D1-planet.svg

<svg width="20" height="24" viewBox="0 0 20 24" fill="none" xmlns="http://www.w3.org/2000/svg">
<path fill-rule="evenodd" clip-rule="evenodd" d="M9.50621,3.91034c-4.69442,0 -8.5,3.80558 -8.5,8.49996c0,4.6945 3.80558,8.5 8.5,8.5c1.37829,0 2.67999,-0.328 3.83119,-0.9103h-3.34189v-1h4.88009c0.3723,-0.3037 0.7184,-0.6383 1.0343,-1h-5.91439v-1h6.66629c0.2053,-0.3193 0.3897,-0.6533 0.5515,-1h-7.21779v-1h7.60899c0.1039,-0.3252 0.1888,-0.659 0.2533,-1h-7.86229v-1h7.99059c0.0133,-0.1948 0.0201,-0.3914 0.0201,-0.5897c0,-0.1375 -0.0033,-0.2743 -0.0097,-0.4103h-8.00099v-1h7.89419c-0.0568,-0.3406 -0.134,-0.6744 -0.2301,-1h-7.6596v-0.99999h7.2944c-0.1517,-0.34599 -0.3258,-0.67993 -0.5204,-1h-6.774v-1h6.0623c-0.2763,-0.33444 -0.5777,-0.64737 -0.9013,-0.93593h-5.16549v-1h3.78929c-1.2567,-0.73348 -2.7186,-1.15374 -4.27859,-1.15374zM0.00621,12.4103c0,-5.24667 4.2533,-9.49996 9.5,-9.49996c5.24669,0 9.49999,4.25329 9.49999,9.49996c0,5.2467 -4.2533,9.5 -9.49999,9.5c-5.2467,0 -9.5,-4.2533 -9.5,-9.5z" fill="black"/>
</svg>

<svg width="20" height="24" viewBox="0 0 20 24" fill="none" xmlns="http://www.w3.org/2000/svg">
<path fill-rule="evenodd" clip-rule="evenodd" d="M9.50621 3.91034C4.81179 3.91034 1.00621 7.71592 1.00621 12.4103C1.00621 17.1048 4.81179 20.9103 9.50621 20.9103C10.8845 20.9103 12.1862 20.5823 13.3374 20H9.99551V19H14.8756C15.2479 18.6963 15.594 18.3617 15.9099 18H9.99551V17H16.6618C16.8671 16.6807 17.0515 16.3467 17.2133 16H9.99551V15H17.6045C17.7084 14.6748 17.7933 14.341 17.8578 14H9.99551V13H17.9861C17.9994 12.8052 18.0062 12.6086 18.0062 12.4103C18.0062 12.2728 18.0029 12.136 17.9965 12H9.99551V11H17.8897C17.8329 10.6594 17.7557 10.3256 17.6596 10H10V9.00001H17.2944C17.1427 8.65402 16.9686 8.32008 16.774 8.00001H10V7.00001H16.0623C15.786 6.66557 15.4846 6.35264 15.161 6.06408L9.99551 6.06408V5.06408L13.7848 5.06408C12.5281 4.3306 11.0662 3.91034 9.50621 3.91034ZM0.00621033 12.4103C0.00621033 7.16363 4.25951 2.91034 9.50621 2.91034C14.7529 2.91034 19.0062 7.16363 19.0062 12.4103C19.0062 17.657 14.7529 21.9103 9.50621 21.9103C4.25951 21.9103 0.00621033 17.657 0.00621033 12.4103Z" fill="black"/>
</svg>
